X:1053
T:A March.
M:2/4
L:1/8
Q:1/4=84
I: :: || DC
P:ABA % Aird uses a da capo
Z:Jack Campin * www.campin.me.uk * 2009
K:C
P:A
g>fee|   e>d```cc|dcdB|c/d/e/d/ c/d/e/f/|g>fee|e>dcc|dc````dB|c2 c2:|
P:B
d2 e2|{g}ff/e/ dd|e2f2|gg/f/    eg      |g`ffe|g`ffe|gg/g/ fe|e2 d2||

